icons/svg/transport_colored/highway_steps.svg

<?xml version="1.0" encoding="UTF-8" standalone="no"?>
<!-- Created with Inkscape (http://www.inkscape.org/) -->

<svg
   xmlns:dc="http://purl.org/dc/elements/1.1/"
   xmlns:cc="http://creativecommons.org/ns#"
   xmlns:rdf="http://www.w3.org/1999/02/22-rdf-syntax-ns#"
   xmlns:svg="http://www.w3.org/2000/svg"
   xmlns="http://www.w3.org/2000/svg"
   xmlns:sodipodi="http://sodipodi.sourceforge.net/DTD/sodipodi-0.dtd"
   xmlns:inkscape="http://www.inkscape.org/namespaces/inkscape"
   version="1.0"
   width="16"
   height="16"
   id="svg2"
   sodipodi:version="0.32"
   inkscape:version="0.91 r"
   sodipodi:docname="highway_steps.svg"
   inkscape:output_extension="org.inkscape.output.svg.inkscape">
  <metadata
     id="metadata10">
    <rdf:RDF>
      <cc:Work
         rdf:about="">
        <dc:format>image/svg+xml</dc:format>
        <dc:type
           rdf:resource="http://purl.org/dc/dcmitype/StillImage" />
        <cc:license
           rdf:resource="http://web.resource.org/cc/PublicDomain" />
        <dc:language>en</dc:language>
        <dc:title />
      </cc:Work>
    </rdf:RDF>
  </metadata>
  <sodipodi:namedview
     inkscape:window-height="1004"
     inkscape:window-width="1920"
     inkscape:pageshadow="2"
     inkscape:pageopacity="0.0"
     guidetolerance="10.0"
     gridtolerance="10.0"
     objecttolerance="10.0"
     borderopacity="1.0"
     bordercolor="#666666"
     pagecolor="#ffffff"
     id="base"
     showgrid="false"
     inkscape:zoom="22.627417"
     inkscape:cx="13.525246"
     inkscape:cy="11.508143"
     inkscape:window-x="1680"
     inkscape:window-y="0"
     inkscape:current-layer="svg2"
     inkscape:window-maximized="1" />
  <defs
     id="defs4">
    <inkscape:perspective
       sodipodi:type="inkscape:persp3d"
       inkscape:vp_x="0 : 290 : 1"
       inkscape:vp_y="0 : 1000 : 0"
       inkscape:vp_z="580 : 290 : 1"
       inkscape:persp3d-origin="290 : 193.33333 : 1"
       id="perspective12" />
    <style
       type="text/css"
       id="style6">
   
    .fil0 {fill:#EF7900}
   
  </style>
    <inkscape:perspective
       id="perspective6807"
       inkscape:persp3d-origin="29.116032 : 19.410688 : 1"
       inkscape:vp_z="58.232063 : 29.116032 : 1"
       inkscape:vp_y="0 : 1000 : 0"
       inkscape:vp_x="0 : 29.116032 : 1"
       sodipodi:type="inkscape:persp3d" />
    <inkscape:perspective
       id="perspective6954"
       inkscape:persp3d-origin="290 : 193.33333 : 1"
       inkscape:vp_z="580 : 290 : 1"
       inkscape:vp_y="0 : 1000 : 0"
       inkscape:vp_x="0 : 290 : 1"
       sodipodi:type="inkscape:persp3d" />
    <marker
       viewBox="0 0 10 10"
       refY="5"
       refX="10"
       orient="auto"
       markerWidth="4"
       markerUnits="strokeWidth"
       markerHeight="3"
       id="ArrowStart">
      <path
         id="path2295"
         d="M 10,0 0,5 10,10 z"
         inkscape:connector-curvature="0" />
    </marker>
    <marker
       viewBox="0 0 10 10"
       refY="5"
       refX="0"
       orient="auto"
       markerWidth="4"
       markerUnits="strokeWidth"
       markerHeight="3"
       id="ArrowEnd">
      <path
         id="path2292"
         d="M 0,0 10,5 0,10 z"
         inkscape:connector-curvature="0" />
    </marker>
    <inkscape:perspective
       id="perspective7597"
       inkscape:persp3d-origin="178.5405 : 158.483 : 1"
       inkscape:vp_z="357.08099 : 237.7245 : 1"
       inkscape:vp_y="0 : 1000 : 0"
       inkscape:vp_x="0 : 237.7245 : 1"
       sodipodi:type="inkscape:persp3d" />
    <inkscape:perspective
       id="perspective2896"
       inkscape:persp3d-origin="0.5 : 0.33333333 : 1"
       inkscape:vp_z="1 : 0.5 : 1"
       inkscape:vp_y="0 : 1000 : 0"
       inkscape:vp_x="0 : 0.5 : 1"
       sodipodi:type="inkscape:persp3d" />
    <inkscape:perspective
       id="perspective2887"
       inkscape:persp3d-origin="0.5 : 0.33333333 : 1"
       inkscape:vp_z="1 : 0.5 : 1"
       inkscape:vp_y="0 : 1000 : 0"
       inkscape:vp_x="0 : 0.5 : 1"
       sodipodi:type="inkscape:persp3d" />
  </defs>
  <g
     id="g1327"
     transform="matrix(0.02753642,0,0,0.02748881,0.01646213,0.0164188)">
    <path
       d="M 66.275,1.768 C 24.94,1.768 1.704,23.139 1.704,66.804 l 0,450.123 c 0,40.844 20.894,62.229 62.192,62.229 l 452.024,0 c 41.307,0 62.229,-20.316 62.229,-62.229 l 0,-450.123 c 0,-42.601 -20.922,-65.036 -63.522,-65.036 -0.003,0 -448.494,-0.143 -448.352,0 z"
       style="fill:#111111;stroke:#eeeeee;stroke-width:3.40799999"
       id="path1329"
       inkscape:connector-curvature="0" />
  </g>
  <g
     id="g2319"
     transform="translate(879.29125,-527.19488)">
    <path
       id="path2323"
       style="fill:#ffffff;stroke:none"
       d=""
       inkscape:connector-curvature="0" />
  </g>
  <g
     id="g2325"
     transform="translate(879.29125,-527.19488)">
    <path
       id="path2329"
       style="fill:#ffffff;stroke:none"
       d=""
       inkscape:connector-curvature="0" />
  </g>
  <path
     style="color:#000000;font-style:normal;font-variant:normal;font-weight:normal;font-stretch:normal;font-size:medium;line-height:normal;font-family:Sans;-inkscape-font-specification:Sans;text-indent:0;text-align:start;text-decoration:none;text-decoration-line:none;letter-spacing:normal;word-spacing:normal;text-transform:none;direction:ltr;block-progression:tb;writing-mode:lr-tb;baseline-shift:baseline;text-anchor:start;display:inline;overflow:visible;visibility:visible;fill:#ffffff;fill-opacity:1;stroke:none;stroke-width:50.20000076;marker:none;enable-background:accumulate"
     d="m 9.2620208,5.0236936 -0.1496291,-8.652e-4 0,0.2826134 0,1.6560545 -2.065657,-0.010563 -0.148231,-8.653e-4 -0.00164,0.2790919 -0.00982,1.6490138 -2.1054374,0 0,2.1103074 6.4367877,-0.0023 0,-5.9746621 c 0,0 -1.2679551,0.01636 -1.9568352,0.012221 z"
     inkscape:connector-curvature="0"
     sodipodi:nodetypes="cccccccccccccc"
     id="path26" />
</svg>

<svg width="16" height="16" viewBox="0 0 16 16" fill="none" xmlns="http://www.w3.org/2000/svg">
<path d="M1.84153 0.0650405C0.703313 0.0650405 0.0634766 0.652504 0.0634766 1.8528V14.2261C0.0634766 15.3489 0.638823 15.9367 1.77602 15.9367H14.2231C15.3606 15.9367 15.9367 15.3783 15.9367 14.2261V1.8528C15.9367 0.681752 15.3606 0.0650405 14.1875 0.0650405C14.1875 0.0650405 1.83762 0.0611096 1.84153 0.0650405V0.0650405Z" fill="#111111" stroke="#EEEEEE" stroke-width="0.093763"/>
<path d="M9.26191 5.02371L9.11228 5.02285V5.30546V6.96151L7.04662 6.95095L6.89839 6.95008L6.89675 7.22918L6.88693 8.87819H4.78149V10.9885L11.2183 10.9862V5.01154C11.2183 5.01154 9.95033 5.0279 9.26145 5.02376L9.26191 5.02371Z" fill="white"/>
</svg>
